X: 112202
Q: "Reel."
M: C
L: 1/8
K: Em
uF |\
Eee^d e2(BA) | GBAF GEEF |\
Eee^d efga | fedf eBBA |\
f |\
gfef gebe | gebe geef |\
defg adfd | ABAG FDDF |\


